svg/300/outlined/schedule.svg

<svg xmlns="http://www.w3.org/2000/svg" width="48" height="48" viewBox="0 -960 960 960"><path d="m630.077-295.462 33.845-33.845-159-160.01v-200.221h-45.383v218.845l170.538 175.231Zm-150.01 195.461q-78.221 0-147.397-29.92-69.176-29.92-120.989-81.71-51.814-51.791-81.747-120.936-29.933-69.146-29.933-147.366 0-78.221 29.92-147.397 29.92-69.176 81.71-120.989 51.791-51.814 120.936-81.747 69.146-29.933 147.366-29.933 78.221 0 147.397 29.92 69.176 29.92 120.989 81.71 51.814 51.791 81.747 120.936 29.933 69.146 29.933 147.366 0 78.221-29.92 147.397-29.92 69.176-81.71 120.989-51.791 51.814-120.936 81.747-69.146 29.933-147.366 29.933ZM480-480Zm0 334.615q138.077 0 236.346-98.269T814.615-480q0-138.077-98.269-236.346T480-814.615q-138.077 0-236.346 98.269T145.385-480q0 138.077 98.269 236.346T480-145.385Z"/></svg>

<svg xmlns="http://www.w3.org/2000/svg" width="48" height="48" viewBox="0 -960 960 960"><path d="m630.08-295.46 33.84-33.85-159-160.01v-200.22h-45.38v218.85l170.54 175.23ZM480.07-100q-78.22 0-147.4-29.92t-120.99-81.71q-51.81-51.79-81.75-120.94Q100-401.71 100-479.93q0-78.22 29.92-147.4t81.71-120.99q51.79-51.81 120.94-81.75Q401.71-860 479.93-860q78.22 0 147.4 29.92t120.99 81.71q51.81 51.79 81.75 120.94Q860-558.29 860-480.07q0 78.22-29.92 147.4t-81.71 120.99q-51.79 51.81-120.94 81.75Q558.29-100 480.07-100ZM480-480Zm0 334.61q138.08 0 236.35-98.26 98.26-98.27 98.26-236.35 0-138.08-98.26-236.35-98.27-98.26-236.35-98.26-138.08 0-236.35 98.26-98.26 98.27-98.26 236.35 0 138.08 98.26 236.35 98.27 98.26 236.35 98.26Z"/></svg>
